X:1
T:Duo rogavi te
T:Antoine de Févin
T:Source : Bicinia---Tomus I---Wittemberg---G.Rhau---1545. Editor : André Vierendeels (12/06/17).
T:Notes : Original clefs : F3, F4 Editorial accidentals above the staff Original note values have been halved
T:Duo rogavi te
T:©
T:©
T:©
C:Antoine de Févin
Z:©
%%score [ 1 2 ]
L:1/8
Q:1/4=120
M:2/2
K:C
V:1 treble-8 nm="Tenor" snm="T"
V:2 bass nm="Bass" snm="B"
V:1
 A4 c3 d | ec f4 ed | f2 e4 c2- | c2 d4 e2- | eA A2 z2 B2- | B2 AG c2 B2- | B2 G4 A2- | %7
w: Du- * *||o ro- ga-||* vi te, ne|_ _ _ de- ne-|* ges mi-|
 A2 B3 E E2 | z2 A4 G2 | c3 B B2 A2 | z2 d4 c2 | f3 e e2 g2- | gf de fg e2- | ed d4 c2 | d8- | d8 | %16
w: * * * hi,|va- ni-|ta- * * tem|et ver-|ba _ men- da|_ ci- i _ lon- ge fac|_ _ a- *|me,|_|
 z4 A3 B | c2 d3 c A2 | B2 A2 c4 | d2 e3 fge | f2 e4 d2 | e4 z2 c2 | d2 e3 dcB | c2 d2 G2 c2 | %24
w: men- *|* di- ci- ta-|tem et di-|vi- * * * *|* * ci-|as ne|de- de- * * *|ris mi- hi, tri-|
 B2 c2 d3 B | c2 d2 e3 d | cB d2 c2 B2 | BA A4 G2 | A4 z2 e2- | e2 e2 f2 e2- | edcB A2 c2 | %31
w: bu- e tan- tum|vi- ctu- i me-|o _ ne- ces- sa-|* * ri- *|a, ne|_ for- te sa-|* * * * ti- a-|
 d2 e4 A2 | z2 A2 B2 A2- | ABcd ef g2- | gfed cdef |"^#" ed d4 c2 | d8 |] %37
w: * * tus|il- li ci-|* * * * * * ar|_ _ _ _ ad _ _ _|ne- * gan- *|dum.|
V:2
 A,8- | A,8 | A,8 | F,4 G,4 | A,3 D, D,4 | z4 E,4 | E,4 C,4 | D,4 E,3 A,, | A,,3 B,, C,D, B,,2 | %9
w: Du-||o|ro- *|ga vi- te,|ne|de- ne-|ges mi- hi,|va- * ni- * ta-|
"^#" A,,2 D,2 D,C, C,2 | F,4 E,4 | D,2 A,4 G,2 | B,4 A,2 G,2- | G,F,E,D, E,4 | D,4 z4 | %15
w: te et ver- * *|ba men-|da- ci i|lon- ge fac|_ _ _ _ a|me,|
 D,3 E, F,2 G,2- | G,F, D,2 F,4 | E,2 D,2 F,4 | G,2 A,3 B,CA, | B,2 A,4 G,2 | A,4 z2 F,2 | %21
w: men _ _ di-|* * ci- ta-|tem et di-|* vi- * * *|* * ci-|as ne|
 G,2 A,3 G, F,E, | F,2 G,2 C,4 | z2 F,2 E,2 F,2 | G,3 E, F,2 G,2 | A,3 G, E,2 G,2- | %26
w: de- de- * ris _|mi- * hi,|tri- bu- e|tan- * tum vic-|tu- i me- o|
 G,2 F,2 E,2 D,C, | D,C,B,,A,, B,,2 B,,2 | A,,8- | A,,8 | z2 A,4 A,2 | B,2 A,3 G, F,E, | %32
w: _ ne- * * *|ces- * * * sa- ri-|a,|_|ne for-|te sa- * * *|
 D,2 F,2 G,2 A,2 | A,,3 B,, C,D,E,F, | G,2 A,3 F, G,2- | G,F,E,D, E,4 | D,8 |] %37
w: * ti- a- tus|il- * li- * * *|ci- ar ad ne-|* * * * gan|dum.|

